packages/core/src/svgs/tokens/branded/PUNDIX.svg

<svg width="24" height="24" viewBox="0 0 24 24" fill="none" xmlns="http://www.w3.org/2000/svg">
<path d="M2 3.42857L3.42857 2L11.2857 9.85717L9.85717 11.2857L2 3.42857ZM12.7143 14.1428L14.1428 12.7143L22 20.5715L20.5715 22L12.7143 14.1428ZM10.5715 12L12 10.5715L13.4285 12L12 13.4285L10.5715 12ZM12.7143 9.85717L20.5715 2L22 3.42857L14.1428 11.2857L12.7143 9.85717ZM2 20.5715L9.85717 12.7143L11.2857 14.1428L3.42857 22L2 20.5715Z" fill="#F2D30E"/>
</svg>

<svg xmlns="http://www.w3.org/2000/svg" width="24" height="24" fill="none" viewBox="0 0 24 24">
    <path fill="#F2D30E" d="M2 3.429 3.429 2l7.857 7.857-1.429 1.429zm10.714 10.714 1.429-1.429L22 20.572 20.572 22zM10.572 12 12 10.572 13.428 12 12 13.428zm2.142-2.143L20.572 2 22 3.429l-7.857 7.857zM2 20.572l7.857-7.858 1.429 1.429L3.429 22z"/>
</svg>
